Dominus_Funeral/22/apps/vmware.svg

<svg xmlns="http://www.w3.org/2000/svg" width="24" height="24" viewBox="0 0 6.35 6.35"><defs><linearGradient id="b"><stop offset="0"/><stop offset="1" stop-opacity="0"/></linearGradient><linearGradient id="c"><stop offset="0" stop-opacity=".02"/><stop offset="1" stop-opacity=".98"/></linearGradient><linearGradient id="a"><stop offset="0"/><stop offset="1" stop-opacity="0"/></linearGradient></defs><path d="M1.27.3v2.03h-1v3.72H4.1V4.83h1.98V1.12H5.1V.3zm.39.37h3.06v.45H2.24v1.2h-.58zm.97.81h2.09v2.16H4.1V2.33H2.63zm2.48 0h.58v2.97H4.11v-.44h1zM.65 2.7h.62v1.31h.97v.82H3.7v.85H.65zm1 0h.59v.94h-.58zm.98 0H3.7v.94H2.63zm0 1.31H3.7v.44H2.63z" fill="#1a1a1a"/></svg>

<?xml version="1.0" encoding="UTF-8" standalone="no"?>
<svg
   xmlns:dc="http://purl.org/dc/elements/1.1/"
   xmlns:cc="http://creativecommons.org/ns#"
   xmlns:rdf="http://www.w3.org/1999/02/22-rdf-syntax-ns#"
   xmlns:svg="http://www.w3.org/2000/svg"
   xmlns="http://www.w3.org/2000/svg"
   xmlns:sodipodi="http://sodipodi.sourceforge.net/DTD/sodipodi-0.dtd"
   xmlns:inkscape="http://www.inkscape.org/namespaces/inkscape"
   width="24"
   height="24"
   viewBox="0 0 6.35 6.35"
   version="1.1"
   id="svg21"
   sodipodi:docname="vmware.svg"
   inkscape:version="0.92.4 (5da689c313, 2019-01-14)">
  <metadata
     id="metadata25">
    <rdf:RDF>
      <cc:Work
         rdf:about="">
        <dc:format>image/svg+xml</dc:format>
        <dc:type
           rdf:resource="http://purl.org/dc/dcmitype/StillImage" />
        <dc:title></dc:title>
      </cc:Work>
    </rdf:RDF>
  </metadata>
  <sodipodi:namedview
     pagecolor="#ffffff"
     bordercolor="#666666"
     borderopacity="1"
     objecttolerance="10"
     gridtolerance="10"
     guidetolerance="10"
     inkscape:pageopacity="0"
     inkscape:pageshadow="2"
     inkscape:window-width="1138"
     inkscape:window-height="480"
     id="namedview23"
     showgrid="false"
     inkscape:zoom="9.8333333"
     inkscape:cx="1.0677966"
     inkscape:cy="12"
     inkscape:window-x="0"
     inkscape:window-y="25"
     inkscape:window-maximized="0"
     inkscape:current-layer="svg21" />
  <defs
     id="defs17">
    <linearGradient
       id="b">
      <stop
         offset="0"
         id="stop2" />
      <stop
         offset="1"
         stop-opacity="0"
         id="stop4" />
    </linearGradient>
    <linearGradient
       id="c">
      <stop
         offset="0"
         stop-opacity=".02"
         id="stop7" />
      <stop
         offset="1"
         stop-opacity=".98"
         id="stop9" />
    </linearGradient>
    <linearGradient
       id="a">
      <stop
         offset="0"
         id="stop12" />
      <stop
         offset="1"
         stop-opacity="0"
         id="stop14" />
    </linearGradient>
  </defs>
  <path
     d="m 1.27,0.3 v 2.03 h -1 V 6.05 H 4.1 V 4.83 H 6.08 V 1.12 H 5.1 V 0.3 Z M 1.66,0.67 H 4.72 V 1.12 H 2.24 v 1.2 H 1.66 Z M 2.63,1.48 H 4.72 V 3.64 H 4.1 V 2.33 H 2.63 Z m 2.48,0 H 5.69 V 4.45 H 4.11 V 4.01 h 1 z M 0.65,2.7 H 1.27 V 4.01 H 2.24 V 4.83 H 3.7 V 5.68 H 0.65 Z m 1,0 H 2.24 V 3.64 H 1.66 Z m 0.98,0 H 3.7 V 3.64 H 2.63 Z m 0,1.31 H 3.7 V 4.45 H 2.63 Z"
     id="path19"
     inkscape:connector-curvature="0"
     style="fill:#1a1a1a" />
</svg>
